X:1
T:Bucklands, SM
T:Bucklands, SM
T:George H. Loud, 1908
T:Public Domain Courtesy of the Cyber Hymnal™
C:George H. Loud, 1908
Z:Public Domain
Z:Courtesy of the Cyber Hymnal™
%%score ( 1 2 ) ( 3 4 )
L:1/8
Q:1/4=115
M:4/4
K:Bb
V:1 treble 
V:2 treble 
V:3 bass 
V:4 bass 
V:1
 B2 | F2 (DE) F2 [EF]2 | [DF]6 [DF]2 | [EG]2 [FG]2 c3 z B | [FA]6 [EF]2 | %5
 [DF]2 (D[CE]) [B,F]2 [DB]2 | d3 z c [DB]2 [^CG]2 | [DF]2 B2 c3 z B | [FB]6 |] %9
V:2
 B2 | F2 DE F2 x2 | x8 | x4 F2 =E2 x | x8 | x2 D x5 | D2 ^F2 x5 | x2 (FB) B2 A2 x | x6 |] %9
V:3
 B,2 | F,2 D,E, (F,G,) [F,A,]2 | [B,,B,]6 [B,,B,]2 | [E,B,]2 [D,=B,]2 [C,G,]2 [C,C]2 x | %4
 [F,C]6 [A,C]2 | B,2 B,2 [D,B,]2 [G,B,]2 | [^F,A,]2 [D,A,]2 G,2 [=E,B,]2 x | %7
 [F,B,]2 [F,D]2 [F,E]2 [F,C]2 x | [B,,D]6 |] %9
V:4
 B,2 | F,2 (D,E,) F,2 x2 | x8 | x9 | x8 | B,2 (B,,C,) x4 | x4 G,2 x3 | x9 | x6 |] %9

